static/icons/KyotoShogi.svg

<svg height="50" viewBox="0 0 13.229166 13.229167" width="50" xmlns="http://www.w3.org/2000/svg"><path d="m25 1.7617188-15.7265625 5.4960937-4.3085937 40.9804685h40.0703122l-4.308594-40.9804685zm-1.375 12.5117192h2.521484c.763889.152692.800781.459562.113282.917968v2.291016h11.458984v2.177734h-25.322266v-2.177734h11.228516zm-7.447266 7.5625h17.53125v8.9375h-2.292968v-.6875h-4.925782v8.480468c0 1.222224-.611762 1.832032-1.833984 1.832032h-2.978516l-.458984-2.519532h2.521484c.305556 0 .457032-.153422.457032-.458984v-7.333984h-5.728516v1.03125h-2.291016zm2.291016 2.177734v3.896484h12.947266v-3.896484zm.6875 7.791016 2.0625 1.949218c.229165.381934-.000001.533403-.6875.457032-1.756944 2.062488-4.048611 3.820095-6.875 5.271484l-1.375-2.634766c2.902778-1.374992 5.194444-3.056852 6.875-5.042968zm11.458984 0c1.604167 2.138885 3.895834 3.743044 6.875 4.8125l-1.490234 2.521484c-3.131944-1.145827-5.613932-3.054903-7.447266-5.728516z" fill="#8d6c46" transform="scale(.26458333)"/></svg>

<?xml version="1.0" encoding="UTF-8" standalone="no"?>
<svg
   xmlns:dc="http://purl.org/dc/elements/1.1/"
   xmlns:cc="http://creativecommons.org/ns#"
   xmlns:rdf="http://www.w3.org/1999/02/22-rdf-syntax-ns#"
   xmlns:svg="http://www.w3.org/2000/svg"
   xmlns="http://www.w3.org/2000/svg"
   xmlns:sodipodi="http://sodipodi.sourceforge.net/DTD/sodipodi-0.dtd"
   xmlns:inkscape="http://www.inkscape.org/namespaces/inkscape"
   width="50"
   height="50"
   viewBox="0 0 13.229166 13.229167"
   version="1.1"
   id="svg1579"
   inkscape:version="1.0.1 (3bc2e813f5, 2020-09-07)"
   sodipodi:docname="KyotoShogi.svg">
  <defs
     id="defs1573">
    <inkscape:path-effect
       effect="mirror_symmetry"
       start_point="-15.691712,-45.362002"
       end_point="-15.691712,4.437998"
       center_point="-15.691712,-20.462002"
       id="path-effect7365"
       is_visible="true"
       mode="free"
       discard_orig_path="false"
       fuse_paths="true"
       oposite_fuse="false" />
  </defs>
  <sodipodi:namedview
     id="base"
     pagecolor="#ffffff"
     bordercolor="#666666"
     borderopacity="1.0"
     inkscape:pageopacity="0.0"
     inkscape:pageshadow="2"
     inkscape:zoom="7.9195959"
     inkscape:cx="13.576476"
     inkscape:cy="38.142259"
     inkscape:document-units="px"
     inkscape:current-layer="layer1"
     showgrid="false"
     units="px"
     showguides="true"
     inkscape:window-width="3840"
     inkscape:window-height="2050"
     inkscape:window-x="-12"
     inkscape:window-y="-12"
     inkscape:window-maximized="1"
     inkscape:document-rotation="0" />
  <metadata
     id="metadata1576">
    <rdf:RDF>
      <cc:Work
         rdf:about="">
        <dc:format>image/svg+xml</dc:format>
        <dc:type
           rdf:resource="http://purl.org/dc/dcmitype/StillImage" />
        <dc:title></dc:title>
      </cc:Work>
    </rdf:RDF>
  </metadata>
  <g
     inkscape:label="Layer 1"
     inkscape:groupmode="layer"
     id="layer1"
     transform="translate(0,-283.77082)">
    <path
       style="fill:#8d6c46;fill-opacity:1;fill-rule:nonzero;stroke:none;stroke-width:0.93406713;stroke-opacity:0.48743723"
       d="M 25 1.7617188 L 9.2734375 7.2578125 L 4.9648438 48.238281 L 45.035156 48.238281 L 40.726562 7.2578125 L 25 1.7617188 z M 23.625 14.273438 L 26.146484 14.273438 C 26.910373 14.42613 26.947265 14.733 26.259766 15.191406 L 26.259766 17.482422 L 37.71875 17.482422 L 37.71875 19.660156 L 12.396484 19.660156 L 12.396484 17.482422 L 23.625 17.482422 L 23.625 14.273438 z M 16.177734 21.835938 L 33.708984 21.835938 L 33.708984 30.773438 L 31.416016 30.773438 L 31.416016 30.085938 L 26.490234 30.085938 L 26.490234 38.566406 C 26.490234 39.78863 25.878472 40.398438 24.65625 40.398438 L 21.677734 40.398438 L 21.21875 37.878906 L 23.740234 37.878906 C 24.04579 37.878906 24.197266 37.725484 24.197266 37.419922 L 24.197266 30.085938 L 18.46875 30.085938 L 18.46875 31.117188 L 16.177734 31.117188 L 16.177734 21.835938 z M 18.46875 24.013672 L 18.46875 27.910156 L 31.416016 27.910156 L 31.416016 24.013672 L 18.46875 24.013672 z M 19.15625 31.804688 L 21.21875 33.753906 C 21.447915 34.13584 21.218749 34.287309 20.53125 34.210938 C 18.774306 36.273426 16.482639 38.031033 13.65625 39.482422 L 12.28125 36.847656 C 15.184028 35.472664 17.475694 33.790804 19.15625 31.804688 z M 30.615234 31.804688 C 32.219401 33.943573 34.511068 35.547732 37.490234 36.617188 L 36 39.138672 C 32.868056 37.992845 30.386068 36.083769 28.552734 33.410156 L 30.615234 31.804688 z "
       transform="matrix(0.26458333,0,0,0.26458333,0,283.77082)"
       id="path3112" />
  </g>
</svg>
